svg/lock_open_minus_outline.svg

<svg xmlns="http://www.w3.org/2000/svg" viewBox="0 0 24 24"><path d="M14 15c0 1.11-.89 2-2 2s-2-.89-2-2 .9-2 2-2 2 .9 2 2m-8 5V10h12v3.09c.33-.05.66-.09 1-.09s.67.04 1 .09V10a2 2 0 0 0-2-2h-1V6c0-2.76-2.24-5-5-5S7 3.24 7 6h2c0-1.66 1.34-3 3-3s3 1.34 3 3v2H6a2 2 0 0 0-2 2v10a2 2 0 0 0 2 2h7.81c-.35-.61-.59-1.28-.72-2zm9-2v2h8v-2z"/></svg>

<?xml version="1.0" encoding="UTF-8"?><!DOCTYPE svg PUBLIC "-//W3C//DTD SVG 1.1//EN" "http://www.w3.org/Graphics/SVG/1.1/DTD/svg11.dtd"><svg xmlns="http://www.w3.org/2000/svg" xmlns:xlink="http://www.w3.org/1999/xlink" version="1.1" id="mdi-lock-open-minus-outline" width="24" height="24" viewBox="0 0 24 24"><path d="M14 15C14 16.11 13.11 17 12 17S10 16.11 10 15 10.9 13 12 13 14 13.9 14 15M6 20V10H18V13.09C18.33 13.04 18.66 13 19 13C19.34 13 19.67 13.04 20 13.09V10C20 8.9 19.11 8 18 8H17V6C17 3.24 14.76 1 12 1S7 3.24 7 6H9C9 4.34 10.34 3 12 3S15 4.34 15 6V8H6C4.89 8 4 8.9 4 10V20C4 21.1 4.89 22 6 22H13.81C13.46 21.39 13.22 20.72 13.09 20H6M15 18V20H23V18H15Z" /></svg>
